!!!OTL: Frisch auf, ihr Landsknecht alle! / B. Zweite Lesart. (Weniger gut.)
!!!ARE: Europa, Mitteleuropa, Deutschland
!!!SCT: A0417B
!!!TXL: @@DE
!!!YEM: Copyright 1995, estate of Helmut Schaffrath.
**kern	**text
!! Mixed meters:  4/2; 6/2; 3/1
*M6/2	*
*met(c)	*
*clefC3	*
*k[b-]	*
*G:	*
!LO:TX:a:t=dor. auf G.	!
1ryy	.
2ryy	.
{2d	Wol
=1	=1
1d	auf,
1d	ir
2e	lands-
2d	-knecht
=2	=2
1c	al-
2Bi	.
1c}	-le,
{2c	ſeid
=3	=3
1d	frö-
1d	-lich
2g	gu-
2d	-ter
=4	=4
*M4/2	*
1d	ding!
2r}	.
{2d	wir
=5	=5
*M3/1	*
1d	lo-
1d	-ben
2e	Gott
2d	den
=6	=6
*lig	*
1c	her-
2Bi	.
*Xlig	*
1c}	-ren,
{2c	dar-
=7	=7
1d	-ʒu
1d	den
2A	ed-
2G	-len
=8	=8
1F	Köng:
2r}	.
{2F	Er
2G	legt
2A	uns
=9	=9
2B-	gwal-
2d	-ti-
2c	-gen
2B-	hau-
2A	-fen
2G	ins
=10	=10
*M4/2	*
1F	feld,
2r}	.
{2F	es
=11	=11
!LO:TX:a:t=P:1b- in the source:problem	!
!LO:N:vis=1	!
2B-	ſol
2c	kein
1d	landsknecht
=12-	=12-
2e	.
2f	trau-
2d	-ren
2e	umb
=13	=13
1d	geld;
2r}	.
{2d	er
=14	=14
2c/	wil
2B-	uns
2c/	er-
2d	-lich
=15	=15
*M3/1	*
1B-	lo-
1G}	-nen,
{1d	mit
=16	=16
1f	ſtüwern
2e	und
1d	ſon-
2d	-nen-
=17	=17
1B-	-kro-
1G}	-nen,
{1d	mit
=18	=18
1f	ſtüwern
2e	und
1d	ſon-
2B-	-nen-
=19	=19
2.c/	-kro-
4B-	.
4A	.
4G	.
1.A	.
=20	=20
1G/ll}	-nen.
==	==
!!!GTL: Landsknecht- und Reiterlieder
!!!AGN: Romanze, Ballade, Lied, Kriegslied
!! Dresdner Cod. M. (1550 - 1560)
!!!ONB: ESAC (Essen Associative Code) Database: ALTDEU
!!!AMT: irregular
!!!AIN: vox
!!!EED: Helmut Schaffrath
!!!EEV: 1.0
!!!RDF**kern: i = editorial accidental
!!!RDF**kern: l = terminal long
!!!AMD: Dorian
!!!URL-scan: https://rosdok.uni-rostock.de/mcrviewer/recordIdentifier/rosdok_ppn738218359/iview2/phys_0593.iview2?x=-495.6391625615763&y=431.5876847207546&scale=0.4629418472063854&rotation=0&layout=singlePageLayout&logicalDiv=log_0015
!!!ENC: Anna Maria Matuszewska
!!!EEV: 2024/15/03
*-	*-
